src/pos-icons/bluetooth-connect.svg

<svg height="24" viewBox="0 0 24 24" width="24" xmlns="http://www.w3.org/2000/svg"><path d="m19 10-2 2 2 2 2-2m-6.12 4.29-1.88 1.88v-3.76m0-8.58 1.88 1.88-1.88 1.87m4.71-1.87-5.71-5.71h-1v7.58l-4.59-4.58-1.41 1.41 5.59 5.59-5.59 5.58 1.41 1.42 4.59-4.59v7.59h1l5.71-5.71-4.3-4.29m-6.41 0-2-2-2 2 2 2z"/></svg>

<?xml version="1.0" encoding="UTF-8"?><!DOCTYPE svg PUBLIC "-//W3C//DTD SVG 1.1//EN" "http://www.w3.org/Graphics/SVG/1.1/DTD/svg11.dtd"><svg xmlns="http://www.w3.org/2000/svg" xmlns:xlink="http://www.w3.org/1999/xlink" version="1.1" id="mdi-bluetooth-connect" width="24" height="24" viewBox="0 0 24 24"><path d="M19,10L17,12L19,14L21,12M14.88,16.29L13,18.17V14.41M13,5.83L14.88,7.71L13,9.58M17.71,7.71L12,2H11V9.58L6.41,5L5,6.41L10.59,12L5,17.58L6.41,19L11,14.41V22H12L17.71,16.29L13.41,12M7,12L5,10L3,12L5,14L7,12Z" /></svg>
